images/bulb.svg

<svg width="82" height="82" viewBox="0 0 82 82" fill="none" xmlns="http://www.w3.org/2000/svg">
<path d="M33.3124 74.3125H48.6874V79.4375H33.3124V74.3125ZM30.7499 66.625H51.2499V71.75H30.7499V66.625ZM59.1649 10.0402C54.349 5.2179 47.8979 2.56251 40.9999 2.56251C37.6326 2.55449 34.2968 3.21182 31.1842 4.49675C28.0716 5.78169 25.2435 7.6689 22.8624 10.05C20.4813 12.4311 18.5941 15.2592 17.3092 18.3718C16.0243 21.4844 15.3669 24.8201 15.375 28.1875C15.375 35.654 18.2369 42.6384 23.2226 47.3486L23.9209 48.0036C26.8053 50.7007 30.7499 54.3955 30.7499 57.6563V64.0625H38.4374V43.0997L31.3457 39.0781L34.2734 34.8692L40.9999 38.4375L47.6128 34.8516L50.6718 38.9644L43.5624 43.1285V64.0625H51.2499V57.6563C51.2499 54.4724 55.1514 50.7808 58.0005 48.0837L58.7869 47.3374C63.9151 42.4414 66.6249 35.8126 66.6249 28.1875C66.6419 24.8198 65.9914 21.4821 64.7109 18.3673C63.4305 15.2525 61.5455 12.4223 59.1649 10.0402Z" fill="#29ABE2"/>
</svg>

<svg xmlns="http://www.w3.org/2000/svg" width="82" height="82" fill="none" viewBox="0 0 82 82"><path fill="#29abe2" d="M33.312 74.313h15.375v5.124H33.312zm-2.562-7.688h20.5v5.125h-20.5zM59.165 10.04C54.349 5.218 47.898 2.563 41 2.563a25.564 25.564 0 0 0-25.625 25.625c0 7.466 2.862 14.45 7.848 19.16l.698.656c2.884 2.697 6.829 6.392 6.829 9.652v6.407h7.687V43.1l-7.091-4.022 2.927-4.209L41 38.438l6.613-3.586 3.059 4.112-7.11 4.165v20.934h7.688v-6.407c0-3.184 3.901-6.875 6.75-9.572l.787-.747c5.128-4.896 7.838-11.524 7.838-19.15a25.5 25.5 0 0 0-7.46-18.147"/></svg>
